src/lib/packages/icons/src/assets/line/image-gallery.svg

<svg width="24" height="24" viewBox="0 0 24 24" fill="none" xmlns="http://www.w3.org/2000/svg">
<path d="M22.175 5.015C21.675 4.351 20.872 3.93802 19.787 3.78502L9.22595 2.30504C8.14095 2.15204 7.26002 2.32704 6.59802 2.82604C5.93402 3.32604 5.52004 4.12903 5.36804 5.21203L5.22095 6.24816H4.66699C2.46399 6.24816 1.25 7.46115 1.25 9.66515V18.3331C1.25 20.5371 2.46399 21.7501 4.66699 21.7501H15.335C17.244 21.7501 18.4071 20.836 18.6851 19.16C20.2441 19.034 21.237 18.022 21.496 16.223L22.6949 7.64318C22.8499 6.56218 22.674 5.678 22.175 5.015ZM4.66699 7.74816H15.335C16.697 7.74816 17.2531 8.30315 17.2531 9.66515V14.7452L13.83 11.3221C13.188 10.6811 12.146 10.6821 11.507 11.3221L7.33398 15.4952L6.71802 14.878C6.07602 14.236 5.03402 14.238 4.39502 14.878L2.75 16.5231V9.66515C2.75 8.30315 3.30599 7.74816 4.66699 7.74816ZM15.335 20.2501H4.66699C3.41099 20.2501 2.84699 19.7691 2.76599 18.6271L5.45496 15.9381C5.50896 15.8851 5.60098 15.8841 5.65698 15.9381L6.49304 16.774C6.95704 17.239 7.71403 17.237 8.17603 16.774L12.568 12.3822C12.624 12.3282 12.716 12.3292 12.77 12.3822L17.2531 16.8651V18.3331C17.2531 19.6951 16.697 20.2501 15.335 20.2501ZM21.21 7.43419L20.011 16.0131C19.866 17.0191 19.4861 17.526 18.7531 17.651V9.66515C18.7531 7.46115 17.539 6.24816 15.335 6.24816H6.73499L6.85205 5.42321C6.94805 4.74721 7.165 4.27604 7.5 4.02404C7.832 3.77304 8.34299 3.69315 9.01599 3.79015L19.578 5.27013C20.254 5.36613 20.724 5.5831 20.976 5.9171C21.228 6.2501 21.306 6.76019 21.21 7.43419ZM5.51697 11.5001C5.51697 10.9481 5.95999 10.5001 6.51099 10.5001H6.51904C7.07004 10.5001 7.51697 10.9481 7.51697 11.5001C7.51697 12.0521 7.07004 12.5001 6.51904 12.5001C5.96904 12.5001 5.51697 12.0521 5.51697 11.5001Z" fill="currentColor"/>
</svg>

<svg xmlns="http://www.w3.org/2000/svg" width="24" height="24" fill="none"><path fill="currentColor" d="M22.175 5.015c-.5-.664-1.303-1.077-2.388-1.23L9.226 2.305c-1.085-.153-1.966.022-2.628.521-.664.5-1.078 1.303-1.23 2.386l-.147 1.036h-.554c-2.203 0-3.417 1.213-3.417 3.417v8.668c0 2.204 1.214 3.417 3.417 3.417h10.668c1.909 0 3.072-.914 3.35-2.59 1.56-.126 2.552-1.138 2.811-2.937l1.199-8.58c.155-1.08-.021-1.965-.52-2.628ZM4.667 7.748h10.668c1.362 0 1.918.555 1.918 1.917v5.08l-3.423-3.423a1.644 1.644 0 0 0-2.323 0l-4.173 4.173-.616-.617a1.643 1.643 0 0 0-2.323 0L2.75 16.523V9.665c0-1.362.556-1.917 1.917-1.917ZM15.335 20.25H4.667c-1.256 0-1.82-.48-1.901-1.623l2.689-2.689a.147.147 0 0 1 .202 0l.836.836a1.191 1.191 0 0 0 1.683 0l4.392-4.392a.147.147 0 0 1 .202 0l4.483 4.483v1.468c0 1.362-.556 1.917-1.918 1.917ZM21.21 7.434l-1.199 8.58c-.145 1.005-.525 1.512-1.258 1.637V9.665c0-2.204-1.214-3.417-3.418-3.417h-8.6l.117-.825c.096-.676.313-1.147.648-1.399.332-.251.843-.33 1.516-.234l10.562 1.48c.676.096 1.146.313 1.398.647.252.333.33.843.234 1.517ZM5.517 11.5c0-.552.443-1 .994-1h.008a1 1 0 1 1-1.002 1Z"/></svg>
